assets/emoji/1f68f.svg

<svg xmlns="http://www.w3.org/2000/svg" viewBox="0 0 128 128" style="enable-background:new 0 0 128 128" xml:space="preserve"><path style="fill:none;stroke:#616161;stroke-width:3;stroke-miterlimit:10" d="M42.98 21.58h29.79M42.98 36.82h29.79"/><path style="fill:#9e9e9e" d="M64.79 124.32H53.3V7.49S54.37 5 59.05 5s5.75 2.49 5.75 2.49v116.83z"/><path style="fill:#757575" d="M61.84 5.37v94.39H53.3v8.59c1.45.01 2.76.18 3.94.44a5.85 5.85 0 0 1 4.61 5.71v9.82h2.95V7.49c-.01 0-.63-1.43-2.96-2.12z"/><path style="fill:#2196f3" d="M92.64 4.32c-13.39 0-24.22 10.83-24.22 24.31s10.83 24.22 24.22 24.22 24.22-10.83 24.22-24.22S106.03 4.32 92.64 4.32z"/><path style="fill:#fff" d="M103.22 13.37c-1.52-.38-4.55-.78-10.57-.78s-9.05.39-10.57.78c-.9.23-3.91 1.48-3.91 4.85V39c0 1.14.92 2.07 2.07 2.07H81v2.3c0 .67.54 1.21 1.21 1.21h2.45c.67 0 1.21-.54 1.21-1.21v-2.3h13.54v2.3c0 .67.54 1.21 1.21 1.21h2.45c.67 0 1.21-.54 1.21-1.21v-2.3h.78c1.14 0 2.07-.92 2.07-2.07V18.22c0-3.23-3.01-4.63-3.91-4.85zm-17.11 1.65c0-.51.41-.92.92-.92h11.22c.51 0 .92.41.92.92v1.63c0 .51-.41.92-.92.92H87.03c-.51 0-.92-.41-.92-.92v-1.63zm.19 21.89c0 .34-.28.62-.62.62h-2.47a2.11 2.11 0 0 1-2.11-2.11v-1.11c0-.34.28-.62.62-.62h2.47c1.16 0 2.11.94 2.11 2.11v1.11zm17.88-1.49c0 1.16-.94 2.11-2.11 2.11H99.6c-.34 0-.62-.28-.62-.62V35.8c0-1.16.94-2.11 2.11-2.11h2.47c.34 0 .62.28.62.62v1.11zm.56-9.03c0 1.34-2.9 3.68-12.1 3.68-9.21 0-12.1-2.17-12.1-3.68v-6.14c0-.4.4-1.4 1.4-1.4h21.56c1 0 1.24 1.01 1.24 1.4v6.14z"/><path style="fill:#f5f5f5" d="M76.88 102.94H41.21c-1.26 0-2.28-1.02-2.28-2.28v-41.2c0-1.26 1.02-2.28 2.28-2.28h35.66c1.26 0 2.28 1.02 2.28 2.28v41.2c0 1.26-1.02 2.28-2.27 2.28z"/><path style="opacity:.8;fill:#82aec0" d="M73.03 96.13H45.06l-.08-32.56h27.98z"/><path style="fill:none;stroke:#f5f5f5;stroke-width:2;stroke-miterlimit:10" d="M58.97 63.57v32.99"/><path style="fill:#616161" d="M44.98 63.57h12.99v2.72H44.98z"/><path style="fill:none;stroke:#f5f5f5;stroke-miterlimit:10" d="M44.95 89.96h28.19m-28.19-6.6h28.19m-28.16-6.6h27.98m-28.01-6.59h28.01"/><path style="fill:#616161" d="M59.96 75.41h12.99v2.72H59.96zM45.08 82h12.95v2.72H45.08z"/><path style="fill:none;stroke:#9e9e9e;stroke-width:3;stroke-linecap:round;stroke-linejoin:round;stroke-miterlimit:10" d="M76.88 102.94H41.21c-1.26 0-2.28-1.02-2.28-2.28v-41.2c0-1.26 1.02-2.28 2.28-2.28h35.66c1.26 0 2.28 1.02 2.28 2.28v41.2c0 1.26-1.02 2.28-2.27 2.28z"/><path style="fill:#757575" d="M41.36 101.46c-1.55.14-1.55-.88-1.55-1.16V59.95c0-1.13.92-2.05 2.05-2.05h34.62c.94 0 1.37.57 1.18 1.73 0 0-.12-.74-1.02-.74H41.87c-.58 0-1.06.48-1.06 1.06v40.36c0 .94.55 1.15.55 1.15z"/><path style="fill:#ffca28" d="M13.13 14.2h34.08v29.6H13.13z"/><path style="fill:#9e9e9e" d="M45.31 14.2c1.05 0 1.9.85 1.9 1.9v25.8a1.9 1.9 0 0 1-1.9 1.9H15.04a1.9 1.9 0 0 1-1.9-1.9V16.1c0-1.05.85-1.9 1.9-1.9h30.27m0-2H15.04c-2.15 0-3.9 1.75-3.9 3.9v25.8c0 2.15 1.75 3.9 3.9 3.9h30.27c2.15 0 3.9-1.75 3.9-3.9V16.1c.01-2.15-1.75-3.9-3.9-3.9z"/><path style="fill:none;stroke:#fffde7;stroke-width:2;stroke-miterlimit:10" d="M13.13 23.89h34.09M13.13 34.11h34.09"/><path style="fill:#757575" d="M15.23 17.49h8.57v2.26h-8.57zm0 20.73h6.46v2.26h-6.46zm22.73 0h6.46v2.26h-6.46zm0-20.73h6.46v2.26h-6.46zm-3.32 10.37h3.72v2.26h-3.72zm6.06 0h3.72v2.26H40.7zm-25.47 0h11.88v2.26H15.23z"/></svg>

<svg xmlns="http://www.w3.org/2000/svg" viewBox="0 0 128 128" style="enable-background:new 0 0 128 128" xml:space="preserve"><path style="fill:none;stroke:#616161;stroke-width:3;stroke-miterlimit:10" d="M42.98 21.58h29.79M42.98 36.82h29.79"/><path style="fill:#9e9e9e" d="M64.79 124.32H53.3V7.49S54.37 5 59.05 5s5.75 2.49 5.75 2.49v116.83z"/><path style="fill:#757575" d="M61.84 5.37v94.39H53.3v8.59c1.45.01 2.76.18 3.94.44a5.85 5.85 0 0 1 4.61 5.71v9.82h2.95V7.49c-.01 0-.63-1.43-2.96-2.12z"/><path style="fill:#2196f3" d="M92.64 4.32c-13.39 0-24.22 10.83-24.22 24.31s10.83 24.22 24.22 24.22 24.22-10.83 24.22-24.22S106.03 4.32 92.64 4.32z"/><path style="fill:#fff" d="M103.22 13.37c-1.52-.38-4.55-.78-10.57-.78s-9.05.39-10.57.78c-.9.23-3.91 1.48-3.91 4.85V39c0 1.14.92 2.07 2.07 2.07H81v2.3c0 .67.54 1.21 1.21 1.21h2.45c.67 0 1.21-.54 1.21-1.21v-2.3h13.54v2.3c0 .67.54 1.21 1.21 1.21h2.45c.67 0 1.21-.54 1.21-1.21v-2.3h.78c1.14 0 2.07-.92 2.07-2.07V18.22c0-3.23-3.01-4.63-3.91-4.85zm-17.11 1.65c0-.51.41-.92.92-.92h11.22c.51 0 .92.41.92.92v1.63c0 .51-.41.92-.92.92H87.03c-.51 0-.92-.41-.92-.92v-1.63zm.19 21.89c0 .34-.28.62-.62.62h-2.47a2.11 2.11 0 0 1-2.11-2.11v-1.11c0-.34.28-.62.62-.62h2.47c1.16 0 2.11.94 2.11 2.11v1.11zm17.88-1.49c0 1.16-.94 2.11-2.11 2.11H99.6c-.34 0-.62-.28-.62-.62V35.8c0-1.16.94-2.11 2.11-2.11h2.47c.34 0 .62.28.62.62v1.11zm.56-9.03c0 1.34-2.9 3.68-12.1 3.68-9.21 0-12.1-2.17-12.1-3.68v-6.14c0-.4.4-1.4 1.4-1.4h21.56c1 0 1.24 1.01 1.24 1.4v6.14z"/><path style="fill:#f5f5f5" d="M76.88 102.94H41.21c-1.26 0-2.28-1.02-2.28-2.28v-41.2c0-1.26 1.02-2.28 2.28-2.28h35.66c1.26 0 2.28 1.02 2.28 2.28v41.2c0 1.26-1.02 2.28-2.27 2.28z"/><path style="opacity:.8;fill:#82aec0" d="M73.03 96.13H45.06l-.08-32.56h27.98z"/><path style="fill:none;stroke:#f5f5f5;stroke-width:2;stroke-miterlimit:10" d="M58.97 63.57v32.99"/><path style="fill:#616161" d="M44.98 63.57h12.99v2.72H44.98z"/><path style="fill:none;stroke:#f5f5f5;stroke-miterlimit:10" d="M44.95 89.96h28.19M44.95 83.36h28.19M44.98 76.76h27.98M44.95 70.17h28.01"/><path style="fill:#616161" d="M59.96 75.41h12.99v2.72H59.96zM45.08 82h12.95v2.72H45.08z"/><path style="fill:none;stroke:#9e9e9e;stroke-width:3;stroke-linecap:round;stroke-linejoin:round;stroke-miterlimit:10" d="M76.88 102.94H41.21c-1.26 0-2.28-1.02-2.28-2.28v-41.2c0-1.26 1.02-2.28 2.28-2.28h35.66c1.26 0 2.28 1.02 2.28 2.28v41.2c0 1.26-1.02 2.28-2.27 2.28z"/><path style="fill:#757575" d="M41.36 101.46c-1.55.14-1.55-.88-1.55-1.16V59.95c0-1.13.92-2.05 2.05-2.05h34.62c.94 0 1.37.57 1.18 1.73 0 0-.12-.74-1.02-.74H41.87c-.58 0-1.06.48-1.06 1.06v40.36c0 .94.55 1.15.55 1.15z"/><path style="fill:#ffca28" d="M13.13 14.2h34.08v29.6H13.13z"/><path style="fill:#9e9e9e" d="M45.31 14.2c1.05 0 1.9.85 1.9 1.9v25.8a1.9 1.9 0 0 1-1.9 1.9H15.04a1.9 1.9 0 0 1-1.9-1.9V16.1c0-1.05.85-1.9 1.9-1.9h30.27m0-2H15.04c-2.15 0-3.9 1.75-3.9 3.9v25.8c0 2.15 1.75 3.9 3.9 3.9h30.27c2.15 0 3.9-1.75 3.9-3.9V16.1c.01-2.15-1.75-3.9-3.9-3.9z"/><path style="fill:none;stroke:#fffde7;stroke-width:2;stroke-miterlimit:10" d="M13.13 23.89h34.09M13.13 34.11h34.09"/><path style="fill:#757575" d="M15.23 17.49h8.57v2.26h-8.57zM15.23 38.22h6.46v2.26h-6.46zM37.96 38.22h6.46v2.26h-6.46zM37.96 17.49h6.46v2.26h-6.46zM34.64 27.86h3.72v2.26h-3.72zM40.7 27.86h3.72v2.26H40.7zM15.23 27.86h11.88v2.26H15.23z"/></svg>
